SVG_Azure_All/Cognitive Services Speaker Recognition.svg

<?xml version="1.0" encoding="UTF-8" standalone="no"?>
<!-- Generated by Microsoft Visio, SVG Export Cognitive Services Speaker Recognition.svg Page-1 -->

<svg
   xmlns:dc="http://purl.org/dc/elements/1.1/"
   xmlns:cc="http://creativecommons.org/ns#"
   xmlns:rdf="http://www.w3.org/1999/02/22-rdf-syntax-ns#"
   xmlns:svg="http://www.w3.org/2000/svg"
   xmlns="http://www.w3.org/2000/svg"
   xmlns:sodipodi="http://sodipodi.sourceforge.net/DTD/sodipodi-0.dtd"
   xmlns:inkscape="http://www.inkscape.org/namespaces/inkscape"
   width="0.77138495in"
   height="0.70861262in"
   viewBox="0 0 55.539602 51.020003"
   xml:space="preserve"
   class="st2"
   version="1.1"
   id="svg16"
   sodipodi:docname="Cognitive Services Speaker Recognition.svg"
   style="font-size:12px;overflow:visible;color-interpolation-filters:sRGB;fill:none;fill-rule:evenodd;stroke-linecap:square;stroke-miterlimit:3"
   inkscape:version="0.92.5 (2060ec1f9f, 2020-04-08)"><metadata
   id="metadata22"><rdf:RDF><cc:Work
       rdf:about=""><dc:format>image/svg+xml</dc:format><dc:type
         rdf:resource="http://purl.org/dc/dcmitype/StillImage" /></cc:Work></rdf:RDF></metadata><defs
   id="defs20" /><sodipodi:namedview
   pagecolor="#ffffff"
   bordercolor="#666666"
   borderopacity="1"
   objecttolerance="10"
   gridtolerance="10"
   guidetolerance="10"
   inkscape:pageopacity="0"
   inkscape:pageshadow="2"
   inkscape:window-width="640"
   inkscape:window-height="480"
   id="namedview18"
   showgrid="false"
   inkscape:zoom="1.8617391"
   inkscape:cx="37.028435"
   inkscape:cy="18.024306"
   inkscape:window-x="0"
   inkscape:window-y="0"
   inkscape:window-maximized="0"
   inkscape:current-layer="svg16" />
	<style
   type="text/css"
   id="style2">
	<![CDATA[
		.st1 {fill:#0078d4;stroke:none;stroke-linecap:butt;stroke-width:10.0328}
		.st2 {fill:none;fill-rule:evenodd;font-size:12px;overflow:visible;stroke-linecap:square;stroke-miterlimit:3}
	]]>
	</style>

	<g
   id="g14"
   transform="translate(-10.031531,-10.0343)">
		<title
   id="title4">Page-1</title>
		<g
   id="group6343-1"
   transform="translate(9.45633,-34.0157)">
			<title
   id="title6">Cognitive Services Speaker Recognition</title>
			<g
   id="shape6344-2">
				<title
   id="title8">Sheet.6344</title>
				<path
   d="m 8.73,69.29 9.19,9.37 25.61,-26.17 3.13,3.19 L 17.85,85.04 5.47,72.42 Z m 41.9,20.93 c -2.15,-0.06 -4.04,-1.59 -4.36,-3.65 -0.39,-2.39 1.3,-4.59 3.84,-4.98 2.48,-0.34 5.28,0.93 5.93,4.25 0.65,4.78 -3,8.7 -8.47,9.23 -0.2,0 -0.26,-0.06 -0.26,-0.06 l -0.26,-1.47 c 0,0 0,-0.13 0.13,-0.2 1.56,-0.53 2.93,-1.26 3.45,-3.12 z m -12.31,0 c -2.15,-0.06 -4.04,-1.59 -4.37,-3.65 -0.39,-2.39 1.3,-4.59 3.85,-4.98 2.47,-0.34 5.27,0.93 5.93,4.25 0.65,4.78 -3,8.7 -8.48,9.23 -0.19,0 -0.26,-0.06 -0.26,-0.06 l -0.26,-1.47 c 0,0 0,-0.13 0.13,-0.2 1.63,-0.53 3,-1.26 3.46,-3.12 z M 18.31,48.9 c 2.15,0.06 4.04,1.59 4.37,3.65 0.39,2.39 -1.31,4.59 -3.85,4.99 -2.47,0.33 -5.28,-0.93 -5.93,-4.26 -0.65,-4.78 3,-8.7 8.47,-9.23 0.2,0 0.26,0.06 0.26,0.06 l 0.27,1.47 c 0,0 0,0.13 -0.14,0.2 -1.56,0.46 -2.93,1.19 -3.45,3.12 z m -12.25,0 c 2.15,0.06 4.04,1.59 4.37,3.65 0.39,2.39 -1.31,4.59 -3.85,4.99 -2.47,0.33 -5.28,-0.93 -5.93,-4.26 -0.65,-4.78 3,-8.7 8.47,-9.23 0.2,0 0.26,0.06 0.26,0.06 l 0.26,1.47 c 0,0 0,0.13 -0.13,0.2 -1.63,0.46 -2.93,1.19 -3.45,3.12 z"
   class="st1"
   id="path10"
   inkscape:connector-curvature="0"
   style="fill:#0078d4;stroke:none;stroke-width:10.03279972;stroke-linecap:butt" />
			</g>
		</g>
	</g>
</svg>

<?xml version="1.0" encoding="UTF-8" standalone="no"?>
<!DOCTYPE svg PUBLIC "-//W3C//DTD SVG 1.1//EN" "http://www.w3.org/Graphics/SVG/1.1/DTD/svg11.dtd">
<!-- Generated by Microsoft Visio, SVG Export Cognitive Services Speaker Recognition.svg Page-1 -->
<svg xmlns="http://www.w3.org/2000/svg" xmlns:xlink="http://www.w3.org/1999/xlink" xmlns:ev="http://www.w3.org/2001/xml-events"
		width="1.05008in" height="1.32045in" viewBox="0 0 75.6056 95.0722" xml:space="preserve" color-interpolation-filters="sRGB"
		class="st2">
	<style type="text/css">
	<![CDATA[
		.st1 {fill:#0078d4;stroke:none;stroke-linecap:butt;stroke-width:10.0328}
		.st2 {fill:none;fill-rule:evenodd;font-size:12px;overflow:visible;stroke-linecap:square;stroke-miterlimit:3}
	]]>
	</style>

	<g>
		<title>Page-1</title>
		<g id="group6175-1" transform="translate(9.45633,-34.0157)">
			<title>Cognitive Services Speaker Recognition</title>
			<g id="shape6176-2">
				<title>Sheet.6176</title>
				<path d="M8.73 69.29 L17.92 78.66 L43.53 52.49 L46.66 55.68 L17.85 85.04 L5.47 72.42 L8.73 69.29 ZM50.63 90.22 C48.48
							 90.16 46.59 88.63 46.27 86.57 C45.88 84.18 47.57 81.98 50.11 81.59 C52.59 81.25 55.39 82.52 56.04 85.84
							 C56.69 90.62 53.04 94.54 47.57 95.07 C47.37 95.07 47.31 95.01 47.31 95.01 L47.05 93.54 C47.05 93.54
							 47.05 93.41 47.18 93.34 C48.74 92.81 50.11 92.08 50.63 90.22 ZM38.32 90.22 C36.17 90.16 34.28 88.63
							 33.95 86.57 C33.56 84.18 35.25 81.98 37.8 81.59 C40.27 81.25 43.07 82.52 43.73 85.84 C44.38 90.62 40.73
							 94.54 35.25 95.07 C35.06 95.07 34.99 95.01 34.99 95.01 L34.73 93.54 C34.73 93.54 34.73 93.41 34.86 93.34
							 C36.49 92.81 37.86 92.08 38.32 90.22 ZM18.31 48.9 C20.46 48.96 22.35 50.49 22.68 52.55 C23.07 54.94
							 21.37 57.14 18.83 57.54 C16.36 57.87 13.55 56.61 12.9 53.28 C12.25 48.5 15.9 44.58 21.37 44.05 C21.57
							 44.05 21.63 44.11 21.63 44.11 L21.9 45.58 C21.9 45.58 21.9 45.71 21.76 45.78 C20.2 46.24 18.83 46.97
							 18.31 48.9 ZM6.06 48.9 C8.21 48.96 10.1 50.49 10.43 52.55 C10.82 54.94 9.12 57.14 6.58 57.54 C4.11 57.87
							 1.3 56.61 0.65 53.28 C0 48.5 3.65 44.58 9.12 44.05 C9.32 44.05 9.38 44.11 9.38 44.11 L9.64 45.58 C9.64
							 45.58 9.64 45.71 9.51 45.78 C7.88 46.24 6.58 46.97 6.06 48.9 Z" class="st1"/>
			</g>
		</g>
	</g>
</svg>
